packages/base/core/src/svg/system/copy.svg

<?xml version="1.0" encoding="UTF-8"?>
<svg width="24px" height="24px" viewBox="0 0 24 24" version="1.1" xmlns="http://www.w3.org/2000/svg" xmlns:xlink="http://www.w3.org/1999/xlink">
    <!-- Generator: Sketch 54.1 (76490) - https://sketchapp.com -->
    <title>Icons/System/filex2</title>
    <desc>Created with Sketch.</desc>
    <g id="Icons/System/filex2" stroke="none" stroke-width="1" fill="none" fill-rule="evenodd">
        <path d="M9.5,6.54120468 L8.58650277,6.54120468 L8.58650277,8.5 L5.5,8.5 L5.5,19.5 L12.5,19.5 L12.5,18.5304635 L14.5,18.5304635 L14.5,20 C14.5,20.8284271 13.843351,21.5 13.0333333,21.5 L4.96666667,21.5 C4.15664903,21.5 3.5,20.8284271 3.5,20 L3.5,8 C3.5,7.17157288 4.15664903,6.5 4.96666667,6.5 L9.5,6.5 L9.5,4 C9.5,3.17157288 10.156649,2.5 10.9666667,2.5 L16.8155014,2.5 C17.2023676,2.5 17.573566,2.6563237 17.8482596,2.93492803 L20.0660915,5.18433478 C20.3437934,5.46599028 20.5,5.84941501 20.5,6.24940675 L20.5,16 C20.5,16.8284271 19.843351,17.5 19.0333333,17.5 L10.9666667,17.5 C10.156649,17.5 9.5,16.8284271 9.5,16 L9.5,6.54120468 Z M14.5,4.5 L11.5,4.5 L11.5,15.5 L18.5,15.5 L18.5,8.5 L16.2142857,8.5 C15.2675119,8.5 14.5,7.73248814 14.5,6.78571429 L14.5,4.5 Z M16.2142857,4.5 L16.2142857,6.58571429 C16.2142857,6.69617124 16.3038288,6.78571429 16.4142857,6.78571429 L18.5,6.78571429 L18.5,6.43443339 L17.5126589,5.3483488 L16.6850284,4.5 L16.2142857,4.5 Z" id="Color" fill="#2859C0"></path>
    </g>
</svg>

<svg xmlns="http://www.w3.org/2000/svg" width="24" height="24" viewBox="0 0 24 24">
    <path fill="#0050D7" fill-rule="evenodd" d="M16.816 2.5c.386 0 .758.156 1.032.435l2.218 2.25c.278.281.434.664.434 1.064V16c0 .828-.657 1.5-1.467 1.5h-8.066c-.81 0-1.467-.672-1.467-1.5V6.541h-.913V8.5H5.5v11h7v-.97h2V20c0 .828-.657 1.5-1.467 1.5H4.967c-.81 0-1.467-.672-1.467-1.5V8c0-.828.657-1.5 1.467-1.5H9.5V4c0-.828.657-1.5 1.467-1.5h5.849zm-2.317 2H11.5v11h7v-7h-2.286A1.714 1.714 0 0 1 14.5 6.786L14.499 4.5zm2.186 0h-.471v2.086c0 .11.09.2.2.2l2.086-.001v-.35l-.988-1.088-.827-.847z"/>
</svg>
